svgs/sharp-solid/tugrik-sign.svg

<svg xmlns="http://www.w3.org/2000/svg" viewBox="0 0 384 512"><!--! Font Awesome Pro 6.6.0 by @fontawesome - https://fontawesome.com License - https://fontawesome.com/license (Commercial License) Copyright 2024 Fonticons, Inc. --><path d="M32 32L0 32 0 96l32 0 128 0 0 103L56.2 225l-31 7.8 15.5 62.1 31-7.8L160 265l0 30L56.2 321l-31 7.8 15.5 62.1 31-7.8L160 361l0 87 0 32 64 0 0-32 0-103L327.8 319l31-7.8-15.5-62.1-31 7.8L224 279l0-30L327.8 223l31-7.8-15.5-62.1-31 7.8L224 183l0-87 128 0 32 0 0-64-32 0L192 32 32 32z"/></svg>

<svg xmlns="http://www.w3.org/2000/svg" viewBox="0 0 384 512"><!--! Font Awesome Pro 6.5.2 by @fontawesome - https://fontawesome.com License - https://fontawesome.com/license (Commercial License) Copyright 2024 Fonticons, Inc. --><path d="M32 32H0V96H32 160V199L56.2 225l-31 7.8 15.5 62.1 31-7.8L160 265v30L56.2 321l-31 7.8 15.5 62.1 31-7.8L160 361v87 32h64V448 345L327.8 319l31-7.8-15.5-62.1-31 7.8L224 279V249L327.8 223l31-7.8-15.5-62.1-31 7.8L224 183V96H352h32V32H352 192 32z"/></svg>
